X:1
T:Title
%%score { ( 1 3 ) | ( 2 4 ) }
L:1/8
M:4/4
K:Bb
V:1 treble nm="Grand Piano"
V:3 treble 
V:2 bass 
V:4 bass 
V:1
 z4 z2[Q:1/4=100] [Dd]>[Dc] | [DA]>[Dc] [DB]>[B,D] [DF]2 [Dd]>[Dc] | %2
 [DA]>[Dc] [DB]>[B,D] [DF]2 [B,D]>[CE] | [DF]>[DF] [DF]>[DF] [_A,DF]>[A,DG] [A,DF]>[A,D] | %4
 [A,EF]6 e>d | d>c c>A F2 e>d | d>c c>A F2 F>G | A>A A>A [=EB]>[Ec] [EB]>[EG] |[M:3/4] c6 | %9
[M:1/4] D>E |[M:4/4] F>=E F>B [Fd]>[DB] [DF]>[B,D] | F6 z2 | F>=E F>B [Fd]>[DB] [DF]>D | E6 z2 | %14
 c>=B c>d [Ae]>[Ae] [Ad]>[Ac] | B6 z2 | d>B F>D E>F d>c |[M:3/4] B6 |] %18
V:2
 z4 z2 [B,,F,]>[B,,F,] | [B,,F,]>[B,,F,] [B,,F,]>[B,,F,] [B,,B,]2 [B,,F,]>[B,,F,] | %2
 [B,,F,]>[B,,F,] [B,,F,]>[B,,F,] [B,,B,]2 [B,,F,]>[B,,F,] | %3
 [B,,B,]>[B,,B,] [B,,B,]>[B,,B,] =B,,>B,, B,,>B,, | C,6 [F,A,E]>[F,A,E] | %5
 [F,A,E]>[F,A,E] [F,A,E]>[F,CE] [F,A,E]2 [F,A,E]>[F,A,E] | %6
 [F,A,E]>[E,A,E] [F,A,E]>[F,CE] [F,A,E]2 [F,A,]>[F,B,F] | %7
 [F,CF]>[F,CF] [F,CF]>[F,CF] [C,C]>[C,C] [C,C]>[C,B,] |[M:3/4] [A,F]2 z2 z2 | %9
[M:1/4] B,>[K:treble]C |[M:4/4] D>_D =D>D[K:bass] [B,,B,]>[B,,B,] [B,,B,]>[B,,F,] | %11
 [B,,B,]>[B,,B,] [B,,B,]>[B,,B,] [B,,B,]2 B,>[K:treble]C | %12
 D>_D =D>D[K:bass] [B,,B,]>[B,,B,] [B,,B,]>[B,,F,B,] | [F,A,C]>[F,A,] [F,A,]>[F,A,] [F,A,]2 F,>F, | %14
 [F,A,F]>[F,_A,F] [F,=A,F]>[F,B,F] [F,C]>[F,C] [^F,D]>[F,D] | %15
 [G,DG]>[G,D] [G,D]>[G,D] [G,D]2[K:bass] [=E,B,]>[E,B,] | [F,B,F]>B, F,>D, E,>F, [F,A,F]>[F,A,E] | %17
[M:3/4] z z/ F,/ G,>G, F,2 |] %18
V:3
 x8 | x8 | x8 | x8 | x8 | x8 | x8 | x8 |[M:3/4] z2 =E2 _E2 |[M:1/4] x2 |[M:4/4] x8 | %11
 D>D D>D D2 D>E | x8 | z z/ C/ C>C C2 F>F | x8 | z z/ G/ G>G G2 [Gc]>[G_d] | x8 | %17
[M:3/4] [B,D]>D E>E D2 |] %18
V:4
 x8 | x8 | x8 | x8 | x8 | x8 | x8 | x8 |[M:3/4] F,2- [F,-G,]2 [F,A,]2 |[M:1/4] x3/2[K:treble] x/ | %10
[M:4/4] x4[K:bass] x4 | x15/2[K:treble] x/ | x4[K:bass] x4 | x8 | x8 | x6[K:bass] x2 | x8 | %17
[M:3/4] B,,6 |] %18

